X: 9
M:4/4
L:1/8
K:D
d>dA>A F>FA>A|d>dA>A F>FA>A|d3 f edef|d2 d>d d2||
f2|e>dc>B A>Bc>A|d>cd>e d>ef>d|e>dc>B A>Bc>A|d>cd>e d>ef>d
f>g|a2 a2 b2 b2|a3 g f2 a2|g2 g2 f2 af|e>de>f e2 ef|
g2 g/2f/2e/2d/2 c2 A2|a>af>f d2 A2|f2 fa gfed|a2 a>a a2||

